X:0
T:Far Over Struy
S:Scots Guards pipe tune book
G:retreat march
M:3/4
L:1/8
Q:1/4=80
K:D
% major/mixolydian hexatonic, D-final in the C-gap hexatonic pitch set
d2  A2 A2 |d>e f2 A2|f>g a2 f2|ed  f2 e2 |
e>f g2 a>g|fe  d2 B2|d>e f2 A2|BA  d2 d2:|
e>f g2 a>g|fd  f2 e2|f>e d2 fa|g>f f2 e2 |
e>f g2 a>g|fe  d2 B2|d>e f2 A2|BA  d2 d2:|
